images/Chk1N114.svg

<?xml version="1.0" encoding="UTF-8"?>
<svg xmlns="http://www.w3.org/2000/svg" xmlns:xlink="http://www.w3.org/1999/xlink" width="300pt" height="300pt" viewBox="0 0 300 300" version="1.1">
<defs>
<g>
<symbol overflow="visible" id="glyph0-0">
<path style="stroke:none;" d="M 0.453125 1.59375 L 0.453125 -6.34375 L 4.953125 -6.34375 L 4.953125 1.59375 Z M 0.953125 1.09375 L 4.453125 1.09375 L 4.453125 -5.84375 L 0.953125 -5.84375 Z M 0.953125 1.09375 "/>
</symbol>
<symbol overflow="visible" id="glyph0-1">
<path style="stroke:none;" d="M 0.890625 -6.5625 L 2.078125 -6.5625 L 4.984375 -1.078125 L 4.984375 -6.5625 L 5.84375 -6.5625 L 5.84375 0 L 4.65625 0 L 1.75 -5.484375 L 1.75 0 L 0.890625 0 Z M 0.890625 -6.5625 "/>
</symbol>
<symbol overflow="visible" id="glyph0-2">
<path style="stroke:none;" d="M 0.890625 -6.5625 L 1.765625 -6.5625 L 1.765625 -3.875 L 5 -3.875 L 5 -6.5625 L 5.890625 -6.5625 L 5.890625 0 L 5 0 L 5 -3.125 L 1.765625 -3.125 L 1.765625 0 L 0.890625 0 Z M 0.890625 -6.5625 "/>
</symbol>
<symbol overflow="visible" id="glyph0-3">
<path style="stroke:none;" d="M 3.546875 -5.953125 C 2.898438 -5.953125 2.382812 -5.710938 2 -5.234375 C 1.625 -4.753906 1.4375 -4.101562 1.4375 -3.28125 C 1.4375 -2.445312 1.625 -1.789062 2 -1.3125 C 2.382812 -0.832031 2.898438 -0.59375 3.546875 -0.59375 C 4.191406 -0.59375 4.703125 -0.832031 5.078125 -1.3125 C 5.453125 -1.789062 5.640625 -2.445312 5.640625 -3.28125 C 5.640625 -4.101562 5.453125 -4.753906 5.078125 -5.234375 C 4.703125 -5.710938 4.191406 -5.953125 3.546875 -5.953125 Z M 3.546875 -6.6875 C 4.460938 -6.6875 5.195312 -6.375 5.75 -5.75 C 6.300781 -5.132812 6.578125 -4.3125 6.578125 -3.28125 C 6.578125 -2.238281 6.300781 -1.410156 5.75 -0.796875 C 5.195312 -0.179688 4.460938 0.125 3.546875 0.125 C 2.617188 0.125 1.878906 -0.179688 1.328125 -0.796875 C 0.773438 -1.410156 0.5 -2.238281 0.5 -3.28125 C 0.5 -4.3125 0.773438 -5.132812 1.328125 -5.75 C 1.878906 -6.375 2.617188 -6.6875 3.546875 -6.6875 Z M 3.546875 -6.6875 "/>
</symbol>
</g>
</defs>
<g id="surface149">
<rect x="0" y="0" width="300" height="300" style="fill:rgb(100%,100%,100%);fill-opacity:1;stroke:none;"/>
<path style="fill:none;stroke-width:1.2;stroke-linecap:butt;stroke-linejoin:miter;stroke:rgb(0%,0%,0%);stroke-opacity:1;stroke-miterlimit:10;" d="M 264.75 168.355469 L 254.429688 166.246094 "/>
<path style="fill:none;stroke-width:1.2;stroke-linecap:butt;stroke-linejoin:miter;stroke:rgb(0%,0%,100%);stroke-opacity:1;stroke-miterlimit:10;" d="M 254.429688 166.246094 L 244.109375 164.136719 "/>
<path style="fill:none;stroke-width:1.2;stroke-linecap:butt;stroke-linejoin:miter;stroke:rgb(0%,0%,100%);stroke-opacity:1;stroke-miterlimit:10;" d="M 244.109375 164.136719 L 240.773438 154.144531 "/>
<path style="fill:none;stroke-width:1.2;stroke-linecap:butt;stroke-linejoin:miter;stroke:rgb(0%,0%,0%);stroke-opacity:1;stroke-miterlimit:10;" d="M 240.773438 154.144531 L 237.4375 144.152344 "/>
<path style=" stroke:none;fill-rule:nonzero;fill:rgb(100%,100%,100%);fill-opacity:1;" d="M 237.109375 158.636719 L 251.109375 158.636719 L 251.109375 169.636719 L 237.109375 169.636719 Z M 237.109375 158.636719 "/>
<g style="fill:rgb(0%,0%,100%);fill-opacity:1;">
  <use xlink:href="#glyph0-1" x="237.109375" y="167.299805"/>
  <use xlink:href="#glyph0-2" x="244.086914" y="167.299805"/>
</g>
<path style="fill:none;stroke-width:1.2;stroke-linecap:butt;stroke-linejoin:miter;stroke:rgb(0%,0%,0%);stroke-opacity:1;stroke-miterlimit:10;" d="M 237.4375 144.152344 L 216.796875 139.9375 "/>
<path style="fill:none;stroke-width:1.2;stroke-linecap:butt;stroke-linejoin:miter;stroke:rgb(0%,0%,0%);stroke-opacity:1;stroke-miterlimit:10;" d="M 239.292969 145.796875 L 246.28125 137.914062 "/>
<path style="fill:none;stroke-width:1.2;stroke-linecap:butt;stroke-linejoin:miter;stroke:rgb(100%,0%,0%);stroke-opacity:1;stroke-miterlimit:10;" d="M 246.28125 137.914062 L 253.265625 130.027344 "/>
<path style="fill:none;stroke-width:1.2;stroke-linecap:butt;stroke-linejoin:miter;stroke:rgb(0%,0%,0%);stroke-opacity:1;stroke-miterlimit:10;" d="M 235.582031 142.507812 L 242.570312 134.625 "/>
<path style="fill:none;stroke-width:1.2;stroke-linecap:butt;stroke-linejoin:miter;stroke:rgb(100%,0%,0%);stroke-opacity:1;stroke-miterlimit:10;" d="M 242.570312 134.625 L 249.554688 126.742188 "/>
<path style="fill:none;stroke-width:1.2;stroke-linecap:butt;stroke-linejoin:miter;stroke:rgb(0%,0%,0%);stroke-opacity:1;stroke-miterlimit:10;" d="M 216.796875 139.9375 L 202.824219 155.707031 "/>
<path style="fill:none;stroke-width:1.2;stroke-linecap:butt;stroke-linejoin:miter;stroke:rgb(0%,0%,0%);stroke-opacity:1;stroke-miterlimit:10;" d="M 211.6875 138.226562 L 200.511719 150.839844 "/>
<path style="fill:none;stroke-width:1.2;stroke-linecap:butt;stroke-linejoin:miter;stroke:rgb(0%,0%,0%);stroke-opacity:1;stroke-miterlimit:10;" d="M 210.125 119.953125 L 216.796875 139.9375 "/>
<path style="fill:none;stroke-width:1.2;stroke-linecap:butt;stroke-linejoin:miter;stroke:rgb(0%,0%,0%);stroke-opacity:1;stroke-miterlimit:10;" d="M 202.824219 155.707031 L 182.179688 151.488281 "/>
<path style="fill:none;stroke-width:1.2;stroke-linecap:butt;stroke-linejoin:miter;stroke:rgb(0%,0%,0%);stroke-opacity:1;stroke-miterlimit:10;" d="M 182.179688 151.488281 L 175.511719 131.503906 "/>
<path style="fill:none;stroke-width:1.2;stroke-linecap:butt;stroke-linejoin:miter;stroke:rgb(0%,0%,0%);stroke-opacity:1;stroke-miterlimit:10;" d="M 176.8125 151.058594 L 171.476562 135.070312 "/>
<path style="fill:none;stroke-width:1.2;stroke-linecap:butt;stroke-linejoin:miter;stroke:rgb(0%,0%,0%);stroke-opacity:1;stroke-miterlimit:10;" d="M 165.234375 164.007812 L 182.179688 151.488281 "/>
<path style="fill:none;stroke-width:1.2;stroke-linecap:butt;stroke-linejoin:miter;stroke:rgb(0%,0%,0%);stroke-opacity:1;stroke-miterlimit:10;" d="M 175.511719 131.503906 L 154.445312 131.671875 "/>
<path style="fill:none;stroke-width:1.2;stroke-linecap:butt;stroke-linejoin:miter;stroke:rgb(0%,0%,0%);stroke-opacity:1;stroke-miterlimit:10;" d="M 175.511719 131.503906 L 189.484375 115.734375 "/>
<path style="fill:none;stroke-width:1.2;stroke-linecap:butt;stroke-linejoin:miter;stroke:rgb(0%,0%,0%);stroke-opacity:1;stroke-miterlimit:10;" d="M 154.445312 131.671875 L 148.09375 151.761719 "/>
<path style="fill:none;stroke-width:1.2;stroke-linecap:butt;stroke-linejoin:miter;stroke:rgb(0%,0%,0%);stroke-opacity:1;stroke-miterlimit:10;" d="M 148.09375 151.761719 L 165.234375 164.007812 "/>
<path style="fill:none;stroke-width:1.2;stroke-linecap:butt;stroke-linejoin:miter;stroke:rgb(0%,0%,0%);stroke-opacity:1;stroke-miterlimit:10;" d="M 131.148438 164.277344 L 148.09375 151.761719 "/>
<path style="fill:none;stroke-width:1.2;stroke-linecap:butt;stroke-linejoin:miter;stroke:rgb(0%,0%,0%);stroke-opacity:1;stroke-miterlimit:10;" d="M 135.789062 167.015625 L 149.34375 157 "/>
<path style="fill:none;stroke-width:1.2;stroke-linecap:butt;stroke-linejoin:miter;stroke:rgb(0%,0%,0%);stroke-opacity:1;stroke-miterlimit:10;" d="M 165.234375 164.007812 L 162.058594 174.050781 "/>
<path style="fill:none;stroke-width:1.2;stroke-linecap:butt;stroke-linejoin:miter;stroke:rgb(0%,0%,100%);stroke-opacity:1;stroke-miterlimit:10;" d="M 162.058594 174.050781 L 158.886719 184.097656 "/>
<path style="fill:none;stroke-width:1.2;stroke-linecap:butt;stroke-linejoin:miter;stroke:rgb(0%,0%,0%);stroke-opacity:1;stroke-miterlimit:10;" d="M 159.875 164.523438 L 157.332031 172.558594 "/>
<path style="fill:none;stroke-width:1.2;stroke-linecap:butt;stroke-linejoin:miter;stroke:rgb(0%,0%,100%);stroke-opacity:1;stroke-miterlimit:10;" d="M 157.332031 172.558594 L 154.792969 180.59375 "/>
<path style="fill:none;stroke-width:1.2;stroke-linecap:butt;stroke-linejoin:miter;stroke:rgb(0%,0%,100%);stroke-opacity:1;stroke-miterlimit:10;" d="M 158.886719 184.097656 L 137.816406 184.265625 "/>
<path style=" stroke:none;fill-rule:nonzero;fill:rgb(100%,100%,100%);fill-opacity:1;" d="M 155.886719 178.597656 L 162.886719 178.597656 L 162.886719 189.597656 L 155.886719 189.597656 Z M 155.886719 178.597656 "/>
<g style="fill:rgb(0%,0%,100%);fill-opacity:1;">
  <use xlink:href="#glyph0-1" x="155.886719" y="187.260742"/>
</g>
<path style="fill:none;stroke-width:1.2;stroke-linecap:butt;stroke-linejoin:miter;stroke:rgb(0%,0%,100%);stroke-opacity:1;stroke-miterlimit:10;" d="M 137.816406 184.265625 L 134.484375 174.273438 "/>
<path style="fill:none;stroke-width:1.2;stroke-linecap:butt;stroke-linejoin:miter;stroke:rgb(0%,0%,0%);stroke-opacity:1;stroke-miterlimit:10;" d="M 134.484375 174.273438 L 131.148438 164.277344 "/>
<path style=" stroke:none;fill-rule:nonzero;fill:rgb(100%,100%,100%);fill-opacity:1;" d="M 130.816406 178.765625 L 144.816406 178.765625 L 144.816406 189.765625 L 130.816406 189.765625 Z M 130.816406 178.765625 "/>
<g style="fill:rgb(0%,0%,100%);fill-opacity:1;">
  <use xlink:href="#glyph0-1" x="130.816406" y="187.428711"/>
  <use xlink:href="#glyph0-2" x="137.793945" y="187.428711"/>
</g>
<path style="fill:none;stroke-width:1.2;stroke-linecap:butt;stroke-linejoin:miter;stroke:rgb(0%,0%,0%);stroke-opacity:1;stroke-miterlimit:10;" d="M 131.148438 164.277344 L 111.058594 157.929688 "/>
<path style="fill:none;stroke-width:1.2;stroke-linecap:butt;stroke-linejoin:miter;stroke:rgb(0%,0%,0%);stroke-opacity:1;stroke-miterlimit:10;" d="M 111.058594 157.929688 L 106.515625 137.355469 "/>
<path style="fill:none;stroke-width:1.2;stroke-linecap:butt;stroke-linejoin:miter;stroke:rgb(0%,0%,0%);stroke-opacity:1;stroke-miterlimit:10;" d="M 105.765625 156.941406 L 102.128906 140.484375 "/>
<path style="fill:none;stroke-width:1.2;stroke-linecap:butt;stroke-linejoin:miter;stroke:rgb(0%,0%,0%);stroke-opacity:1;stroke-miterlimit:10;" d="M 95.515625 172.148438 L 111.058594 157.929688 "/>
<path style="fill:none;stroke-width:1.2;stroke-linecap:butt;stroke-linejoin:miter;stroke:rgb(0%,0%,0%);stroke-opacity:1;stroke-miterlimit:10;" d="M 106.515625 137.355469 L 86.425781 131.003906 "/>
<path style="fill:none;stroke-width:1.2;stroke-linecap:butt;stroke-linejoin:miter;stroke:rgb(0%,0%,0%);stroke-opacity:1;stroke-miterlimit:10;" d="M 86.425781 131.003906 L 70.882812 145.226562 "/>
<path style="fill:none;stroke-width:1.2;stroke-linecap:butt;stroke-linejoin:miter;stroke:rgb(0%,0%,0%);stroke-opacity:1;stroke-miterlimit:10;" d="M 88.21875 136.085938 L 75.785156 147.460938 "/>
<path style="fill:none;stroke-width:1.2;stroke-linecap:butt;stroke-linejoin:miter;stroke:rgb(0%,0%,0%);stroke-opacity:1;stroke-miterlimit:10;" d="M 70.882812 145.226562 L 50.792969 138.875 "/>
<path style="fill:none;stroke-width:1.2;stroke-linecap:butt;stroke-linejoin:miter;stroke:rgb(0%,0%,0%);stroke-opacity:1;stroke-miterlimit:10;" d="M 70.882812 145.226562 L 75.425781 165.800781 "/>
<path style="fill:none;stroke-width:1.2;stroke-linecap:butt;stroke-linejoin:miter;stroke:rgb(0%,0%,0%);stroke-opacity:1;stroke-miterlimit:10;" d="M 50.792969 138.875 L 48.523438 128.589844 "/>
<path style="fill:none;stroke-width:1.2;stroke-linecap:butt;stroke-linejoin:miter;stroke:rgb(100%,0%,0%);stroke-opacity:1;stroke-miterlimit:10;" d="M 48.523438 128.589844 L 46.25 118.304688 "/>
<path style="fill:none;stroke-width:1.2;stroke-linecap:butt;stroke-linejoin:miter;stroke:rgb(0%,0%,0%);stroke-opacity:1;stroke-miterlimit:10;" d="M 49.121094 137.046875 L 41.347656 144.15625 "/>
<path style="fill:none;stroke-width:1.2;stroke-linecap:butt;stroke-linejoin:miter;stroke:rgb(100%,0%,0%);stroke-opacity:1;stroke-miterlimit:10;" d="M 41.347656 144.15625 L 33.578125 151.269531 "/>
<path style="fill:none;stroke-width:1.2;stroke-linecap:butt;stroke-linejoin:miter;stroke:rgb(0%,0%,0%);stroke-opacity:1;stroke-miterlimit:10;" d="M 52.46875 140.703125 L 44.695312 147.816406 "/>
<path style="fill:none;stroke-width:1.2;stroke-linecap:butt;stroke-linejoin:miter;stroke:rgb(100%,0%,0%);stroke-opacity:1;stroke-miterlimit:10;" d="M 44.695312 147.816406 L 36.921875 154.925781 "/>
<path style=" stroke:none;fill-rule:nonzero;fill:rgb(100%,100%,100%);fill-opacity:1;" d="M 39.25 112.804688 L 54.25 112.804688 L 54.25 123.804688 L 39.25 123.804688 Z M 39.25 112.804688 "/>
<g style="fill:rgb(100%,0%,0%);fill-opacity:1;">
  <use xlink:href="#glyph0-2" x="39.25" y="121.467773"/>
  <use xlink:href="#glyph0-3" x="46.264648" y="121.467773"/>
</g>
<path style=" stroke:none;fill-rule:nonzero;fill:rgb(100%,100%,100%);fill-opacity:1;" d="M 27.25 147.597656 L 35.25 147.597656 L 35.25 158.597656 L 27.25 158.597656 Z M 27.25 147.597656 "/>
<g style="fill:rgb(100%,0%,0%);fill-opacity:1;">
  <use xlink:href="#glyph0-3" x="27.25" y="156.260742"/>
</g>
<path style="fill:none;stroke-width:1.2;stroke-linecap:butt;stroke-linejoin:miter;stroke:rgb(0%,0%,0%);stroke-opacity:1;stroke-miterlimit:10;" d="M 75.425781 165.800781 L 95.515625 172.148438 "/>
<path style="fill:none;stroke-width:1.2;stroke-linecap:butt;stroke-linejoin:miter;stroke:rgb(0%,0%,0%);stroke-opacity:1;stroke-miterlimit:10;" d="M 78.929688 161.707031 L 95 166.789062 "/>
<path style="fill:none;stroke-width:1.2;stroke-linecap:butt;stroke-linejoin:miter;stroke:rgb(0%,0%,0%);stroke-opacity:1;stroke-miterlimit:10;" d="M 189.484375 115.734375 L 210.125 119.953125 "/>
<path style="fill:none;stroke-width:1.2;stroke-linecap:butt;stroke-linejoin:miter;stroke:rgb(0%,0%,0%);stroke-opacity:1;stroke-miterlimit:10;" d="M 190.554688 121.015625 L 207.070312 124.386719 "/>
<path style=" stroke:none;fill-rule:nonzero;fill:rgb(100%,100%,100%);fill-opacity:1;" d="M 247.410156 122.882812 L 255.410156 122.882812 L 255.410156 133.882812 L 247.410156 133.882812 Z M 247.410156 122.882812 "/>
<g style="fill:rgb(100%,0%,0%);fill-opacity:1;">
  <use xlink:href="#glyph0-3" x="247.410156" y="131.545898"/>
</g>
</g>
</svg>

<svg xmlns="http://www.w3.org/2000/svg" xmlns:xlink="http://www.w3.org/1999/xlink" width="300pt" height="300pt" viewBox="0 0 300 300"><defs><symbol overflow="visible"><path d="M.453 1.594v-7.938h4.5v7.938zm.5-.5h3.5v-6.938h-3.5zm0 0"/></symbol><symbol overflow="visible" id="a"><path d="M.89-6.563H2.08l2.906 5.485v-5.484h.86V0H4.656L1.75-5.484V0H.89zm0 0"/></symbol><symbol overflow="visible" id="b"><path d="M.89-6.563h.876v2.688H5v-2.688h.89V0H5v-3.125H1.766V0H.89zm0 0"/></symbol><symbol overflow="visible" id="c"><path d="M3.547-5.953c-.65 0-1.164.242-1.547.72-.375.48-.563 1.13-.563 1.952 0 .835.188 1.49.563 1.967.383.48.898.72 1.547.72.644 0 1.156-.24 1.53-.72.376-.476.564-1.132.564-1.968 0-.822-.187-1.474-.562-1.954-.375-.477-.887-.72-1.53-.72zm0-.734c.914 0 1.648.312 2.203.937.55.617.828 1.438.828 2.47 0 1.042-.277 1.87-.828 2.483-.555.617-1.29.922-2.203.922-.93 0-1.668-.305-2.22-.922C.774-1.41.5-2.237.5-3.28c0-1.033.273-1.853.828-2.47.55-.625 1.29-.938 2.22-.938zm0 0"/></symbol></defs><g><path fill="#fff" d="M0 0h300v300H0z"/><path d="M264.75 168.355l-10.32-2.11" stroke-width="1.2" stroke="#000" stroke-miterlimit="10" fill="none"/><path d="M254.43 166.246l-10.32-2.11M244.11 164.137l-3.337-9.992" stroke-width="1.2" stroke="#00f" stroke-miterlimit="10" fill="none"/><path d="M240.773 154.145l-3.335-9.993" stroke-width="1.2" stroke="#000" stroke-miterlimit="10" fill="none"/><path d="M237.11 158.637h14v11h-14zm0 0" fill="#fff"/><g fill="#00f"><use xlink:href="#a" x="237.109" y="167.3"/><use xlink:href="#b" x="244.087" y="167.3"/></g><path d="M237.438 144.152l-20.64-4.214M239.293 145.797l6.988-7.883" stroke-width="1.2" stroke="#000" stroke-miterlimit="10" fill="none"/><path d="M246.28 137.914l6.986-7.887" stroke-width="1.2" stroke="#f00" stroke-miterlimit="10" fill="none"/><path d="M235.582 142.508l6.988-7.883" stroke-width="1.2" stroke="#000" stroke-miterlimit="10" fill="none"/><path d="M242.57 134.625l6.985-7.883" stroke-width="1.2" stroke="#f00" stroke-miterlimit="10" fill="none"/><path d="M216.797 139.938l-13.973 15.77M211.688 138.227l-11.176 12.613M210.125 119.953l6.672 19.984M202.824 155.707l-20.644-4.22M182.18 151.488l-6.668-19.984M176.813 151.06l-5.336-15.99M165.234 164.008l16.946-12.52M175.512 131.504l-21.067.168M175.512 131.504l13.972-15.77M154.445 131.672l-6.35 20.09M148.094 151.762l17.14 12.246M131.148 164.277l16.946-12.515M135.79 167.016L149.343 157M165.234 164.008l-3.175 10.043" stroke-width="1.2" stroke="#000" stroke-miterlimit="10" fill="none"/><path d="M162.06 174.05l-3.173 10.048" stroke-width="1.2" stroke="#00f" stroke-miterlimit="10" fill="none"/><path d="M159.875 164.523l-2.543 8.036" stroke-width="1.2" stroke="#000" stroke-miterlimit="10" fill="none"/><path d="M157.332 172.56l-2.54 8.034M158.887 184.098l-21.07.168" stroke-width="1.2" stroke="#00f" stroke-miterlimit="10" fill="none"/><path d="M155.887 178.598h7v11h-7zm0 0" fill="#fff"/><use xlink:href="#a" x="155.887" y="187.261" fill="#00f"/><path d="M137.816 184.266l-3.332-9.993" stroke-width="1.2" stroke="#00f" stroke-miterlimit="10" fill="none"/><path d="M134.484 174.273l-3.336-9.996" stroke-width="1.2" stroke="#000" stroke-miterlimit="10" fill="none"/><path d="M130.816 178.766h14v11h-14zm0 0" fill="#fff"/><g fill="#00f"><use xlink:href="#a" x="130.816" y="187.429"/><use xlink:href="#b" x="137.794" y="187.429"/></g><path d="M131.148 164.277l-20.09-6.347M111.06 157.93l-4.544-20.575M105.766 156.94l-3.637-16.456M95.516 172.148l15.543-14.218M106.516 137.355l-20.09-6.35M86.426 131.004l-15.543 14.223M88.22 136.086L75.784 147.46M70.883 145.227l-20.09-6.352M70.883 145.227l4.543 20.574M50.793 138.875l-2.27-10.285" stroke-width="1.2" stroke="#000" stroke-miterlimit="10" fill="none"/><path d="M48.523 128.59l-2.273-10.285" stroke-width="1.2" stroke="#f00" stroke-miterlimit="10" fill="none"/><path d="M49.12 137.047l-7.772 7.11" stroke-width="1.2" stroke="#000" stroke-miterlimit="10" fill="none"/><path d="M41.348 144.156l-7.77 7.114" stroke-width="1.2" stroke="#f00" stroke-miterlimit="10" fill="none"/><path d="M52.47 140.703l-7.775 7.113" stroke-width="1.2" stroke="#000" stroke-miterlimit="10" fill="none"/><path d="M44.695 147.816l-7.773 7.11" stroke-width="1.2" stroke="#f00" stroke-miterlimit="10" fill="none"/><path d="M39.25 112.805h15v11h-15zm0 0" fill="#fff"/><g fill="#f00"><use xlink:href="#b" x="39.25" y="121.468"/><use xlink:href="#c" x="46.265" y="121.468"/></g><path d="M27.25 147.598h8v11h-8zm0 0" fill="#fff"/><use xlink:href="#c" x="27.25" y="156.261" fill="#f00"/><path d="M75.426 165.8l20.09 6.348M78.93 161.707L95 166.79M189.484 115.734l20.64 4.22M190.555 121.016l16.515 3.37" stroke-width="1.2" stroke="#000" stroke-miterlimit="10" fill="none"/><path d="M247.41 122.883h8v11h-8zm0 0" fill="#fff"/><use xlink:href="#c" x="247.41" y="131.546" fill="#f00"/></g></svg>
